X:923
T:Reel 923
M:4/4
K:Dmaj
L:1/8
DB,|A,DDE FDEC|D2DF G2FE|DB,B,C DEFG|AFED C2A,2|DCDF EF (3GFE |D2DF E2d2|AGFE DEFA|BABc d2|BA|dcdB A2F2|BcBc B2FA|dcdB ABcB|AFEF E2FA|dcdB BAFA|dcdB A2FE|DEFG AFDE|FGEF D2|
